src/css/fonts/SVGs/socials/reddit.svg

<?xml version="1.0" encoding="UTF-8"?>
<svg xmlns="http://www.w3.org/2000/svg" xmlns:xlink="http://www.w3.org/1999/xlink" width="48pt" height="48pt" viewBox="0 0 48 48" version="1.1">
<g id="surface1">
<path style=" stroke:none;fill-rule:nonzero;fill:black;fill-opacity:1;" d="M 41.519531 18.085938 C 40.113281 18.085938 38.875 18.667969 37.96875 19.578125 C 34.621094 17.261719 30.109375 15.769531 25.113281 15.609375 L 27.710938 3.910156 L 35.980469 5.765625 C 35.980469 7.792969 37.628906 9.441406 39.65625 9.441406 C 41.71875 9.441406 43.375 7.746094 43.375 5.71875 C 43.375 3.695312 41.726562 2 39.65625 2 C 38.210938 2 36.964844 2.871094 36.34375 4.0625 L 27.214844 2.035156 C 26.753906 1.914062 26.304688 2.242188 26.183594 2.703125 L 23.332031 15.601562 C 18.375 15.808594 13.910156 17.296875 10.554688 19.613281 C 9.644531 18.667969 8.359375 18.085938 6.953125 18.085938 C 1.742188 18.085938 0.0351562 25.078125 4.808594 27.46875 C 4.640625 28.210938 4.5625 29 4.5625 29.785156 C 4.5625 37.640625 13.414062 44.007812 24.28125 44.007812 C 35.191406 44.007812 44.042969 37.640625 44.042969 29.785156 C 44.042969 29 43.957031 28.171875 43.75 27.433594 C 48.429688 25.03125 46.703125 18.085938 41.519531 18.085938 Z M 12.375 27.96875 C 12.375 25.90625 14.023438 24.246094 16.09375 24.246094 C 18.121094 24.246094 19.769531 25.894531 19.769531 27.96875 C 19.769531 29.992188 18.121094 31.640625 16.09375 31.640625 C 14.03125 31.652344 12.375 29.992188 12.375 27.96875 Z M 32.464844 36.734375 C 29.050781 40.144531 19.421875 40.144531 16.011719 36.734375 C 15.636719 36.40625 15.636719 35.824219 16.011719 35.449219 C 16.339844 35.121094 16.921875 35.121094 17.25 35.449219 C 19.855469 38.121094 28.5 38.167969 31.21875 35.449219 C 31.546875 35.121094 32.125 35.121094 32.453125 35.449219 C 32.839844 35.824219 32.839844 36.40625 32.464844 36.734375 Z M 32.390625 31.652344 C 30.363281 31.652344 28.714844 30 28.714844 27.976562 C 28.714844 25.914062 30.363281 24.253906 32.390625 24.253906 C 34.453125 24.253906 36.109375 25.90625 36.109375 27.976562 C 36.101562 29.992188 34.453125 31.652344 32.390625 31.652344 Z M 32.390625 31.652344 "/>
</g>
</svg>

<svg xmlns="http://www.w3.org/2000/svg" viewBox="0 0 48 48">
  <path d="M41.52 18.086a4.98 4.98 0 0 0-3.551 1.492c-3.348-2.316-7.86-3.808-12.856-3.969L27.711 3.91l8.27 1.856a3.68 3.68 0 0 0 3.675 3.675c2.063 0 3.719-1.695 3.719-3.722A3.728 3.728 0 0 0 39.656 2c-1.445 0-2.691.871-3.312 2.063l-9.13-2.028c-.46-.12-.91.207-1.03.668l-2.852 12.899c-4.957.207-9.422 1.695-12.777 4.011a4.993 4.993 0 0 0-3.602-1.527c-5.21 0-6.918 6.992-2.144 9.383a10.574 10.574 0 0 0-.247 2.316c0 7.856 8.852 14.223 19.72 14.223 10.91 0 19.761-6.367 19.761-14.223 0-.785-.086-1.613-.293-2.351 4.68-2.403 2.953-9.348-2.23-9.348Zm-29.145 9.883a3.706 3.706 0 0 1 3.719-3.723c2.027 0 3.676 1.649 3.676 3.723a3.678 3.678 0 0 1-3.676 3.672c-2.063.011-3.719-1.649-3.719-3.672Zm20.09 8.765c-3.414 3.41-13.043 3.41-16.453 0-.375-.328-.375-.91 0-1.285a.902.902 0 0 1 1.238 0c2.605 2.672 11.25 2.719 13.969 0a.897.897 0 0 1 1.234 0c.387.375.387.957.012 1.285Zm-.074-5.082a3.682 3.682 0 0 1-3.676-3.675c0-2.063 1.648-3.723 3.676-3.723a3.706 3.706 0 0 1 3.718 3.723c-.007 2.015-1.656 3.675-3.718 3.675Zm0 0"/>
</svg>
